X: 111
T: 111. Herzliebester Jesu, was hast du verbrochen
N: Derived from chor111.krn
C: Johann Sebastian Bach
%%abc-version 2.0
%%abcx-abcm2ps-target-version 5.9.1 (29 Sep 2008)
%%abc-creator hum2abc beta
%%abcx-conversion-date 2019/03/11 17:28:18
%%abc-edited-by Craig Stuart Sapp
%%humdrum-veritas 2780964761
%%humdrum-veritas-data 4011415667
%%
%%barnumbers 0
L: 1/8
M: C
%%staves [1 2 3 4]
V: 1 clef=treble
V: 2 clef=treble
V: 3 clef=treble-8
V: 4 clef=bass
K: C
[V:1] A2 [I:setbarnb 1]| 
[V:2] CD | 
[V:3] AB | 
[V:4] A,2 | 
[V:1] A2A2^G2E2 | 
[V:2] E2E2E2B,2 | 
[V:3] c2c2B2^G2 | 
[V:4] A,,B,, C,D, E,F, E,D, | 
[V:1] A2B2c2c2 | 
[V:2] E^F^G2A2A2 | 
[V:3] A2d2e2e2 | 
[V:4] C,D, C,B,, A,,E, A,=G, | 
[V:1] d2c/B/c!fermata!B2B2 | 
[V:2] A4!fermata!^G2G2 | 
[V:3] f2A2!fermata!e2e2 | 
[V:4] =F,E, F,D,!fermata!E,2E,2 | 
[V:1] c2de/f/e2c2 | 
[V:2] A2=G2G2F2 | 
[V:3] e2B2c2A2 | 
[V:4] A,=G, F,G, C,D, E,F, | 
[V:1] f2f2ed cd | 
[V:2] A2A2A2E2 | 
[V:3] d2d2c2c2 | 
[V:4] D,E, F,G, A,B, A,G, | 
[V:1] d4!fermata!c2c2 | 
[V:2] A2G2!fermata!G2A2 | 
[V:3] c2B2!fermata!e2e2 | 
[V:4] F,E, F,G,!fermata!C,2A,2 | 
[V:1] B2A2G^F EF | 
[V:2] AG G^FE2E2 | 
[V:3] ^fec2B2B2 | 
[V:4] ^D,E, ^F,D, E,F, G,F, | 
[V:1] G2G2A2G2 | 
[V:2] ED ^CDE2E2 | 
[V:3] B2_B2A2A2 | 
[V:4] E,=F, E,D, ^C,A,, B,,C, | 
[V:1] F4!fermata!E2e2 | 
[V:2] E2D2!fermata!^C2A2 | 
[V:3] A4!fermata!A2=c2 | 
[V:4] D,E, F,G,!fermata!A,2A,G, | 
[V:1] d2cBB4 | 
[V:2] AB EDF2ED | 
[V:3] cBA2A2^G2 | 
[V:4] ^F,^G, A,=F, D,B,,E,2 | 
[V:1] !fermata!A6 |]  
[V:2] !fermata!^C6 |]  
[V:3] !fermata!E6 |]  
[V:4] !fermata!A,,6 |]  



